icons/edit-clear-locationbar.svg

<?xml version="1.0" encoding="UTF-8" standalone="no"?>
<!-- Created with Inkscape (http://www.inkscape.org/) -->

<svg
   xmlns:dc="http://purl.org/dc/elements/1.1/"
   xmlns:cc="http://creativecommons.org/ns#"
   xmlns:rdf="http://www.w3.org/1999/02/22-rdf-syntax-ns#"
   xmlns:svg="http://www.w3.org/2000/svg"
   xmlns="http://www.w3.org/2000/svg"
   xmlns:sodipodi="http://sodipodi.sourceforge.net/DTD/sodipodi-0.dtd"
   xmlns:inkscape="http://www.inkscape.org/namespaces/inkscape"
   width="64px"
   height="64px"
   id="svg2816"
   version="1.1"
   inkscape:version="0.47pre2 r22153"
   sodipodi:docname="edit-clear-locationbar.svg">
  <defs
     id="defs2818">
    <inkscape:perspective
       sodipodi:type="inkscape:persp3d"
       inkscape:vp_x="0 : 32 : 1"
       inkscape:vp_y="0 : 1000 : 0"
       inkscape:vp_z="64 : 32 : 1"
       inkscape:persp3d-origin="32 : 21.333333 : 1"
       id="perspective2824" />
  </defs>
  <sodipodi:namedview
     id="base"
     pagecolor="#ffffff"
     bordercolor="#666666"
     borderopacity="1.0"
     inkscape:pageopacity="0"
     inkscape:pageshadow="2"
     inkscape:zoom="13.296875"
     inkscape:cx="30.571093"
     inkscape:cy="19.967098"
     inkscape:current-layer="layer1"
     showgrid="true"
     inkscape:document-units="px"
     inkscape:grid-bbox="true"
     inkscape:window-width="1255"
     inkscape:window-height="1089"
     inkscape:window-x="115"
     inkscape:window-y="18"
     inkscape:window-maximized="0">
    <inkscape:grid
       type="xygrid"
       id="grid2826"
       empspacing="4"
       visible="true"
       enabled="true"
       snapvisiblegridlinesonly="true" />
  </sodipodi:namedview>
  <metadata
     id="metadata2821">
    <rdf:RDF>
      <cc:Work
         rdf:about="">
        <dc:format>image/svg+xml</dc:format>
        <dc:type
           rdf:resource="http://purl.org/dc/dcmitype/StillImage" />
        <dc:title></dc:title>
      </cc:Work>
    </rdf:RDF>
  </metadata>
  <g
     id="layer1"
     inkscape:label="Layer 1"
     inkscape:groupmode="layer">
    <path
       style="opacity:0.66000001;fill:#000000;fill-opacity:1;fill-rule:nonzero;stroke:none"
       d="m 24,16 0,32 32,0 c 4.432004,0 8,-3.568 8,-8 l 0,-16 c 0,-4.432 -3.567996,-8 -8,-8 l -32,0 z m 16,4 c 6.627417,0 12,5.372583 12,12 0,6.627417 -5.372583,12 -12,12 -6.627417,0 -12,-5.372583 -12,-12 0,-6.627417 5.372583,-12 12,-12 z m 0,4 c -1.436393,0 -2.772445,0.399531 -3.9375,1.0625 l 10.875,10.875 C 47.600469,34.772445 48,33.436393 48,32 48,27.581722 44.418278,24 40,24 z m -6.8125,3.84375 C 32.445469,29.057131 32,30.473521 32,32 c 0,4.418278 3.581722,8 8,8 1.526479,0 2.942869,-0.445469 4.15625,-1.1875 L 33.1875,27.84375 z"
       id="rect3606" />
    <path
       style="opacity:0.66000001;fill:#000000;fill-opacity:1;fill-rule:nonzero;stroke:none"
       d="M 24 16 C 20.607961 15.91383 13.63409 19.938548 11.4375 21.34375 C 8.9271117 22.949695 0.621528 28.826005 0.625 32.03125 C 0.628472 35.236495 8.9548895 41.0882 11.46875 42.6875 C 13.66485 44.084642 20.602761 48.05153 24 47.96875 L 24 16 z "
       id="path3613" />
  </g>
</svg>

<?xml version="1.0" encoding="UTF-8" standalone="no"?>
<!-- Created with Inkscape (http://www.inkscape.org/) -->
<svg
   xmlns:dc="http://purl.org/dc/elements/1.1/"
   xmlns:cc="http://creativecommons.org/ns#"
   xmlns:rdf="http://www.w3.org/1999/02/22-rdf-syntax-ns#"
   xmlns:svg="http://www.w3.org/2000/svg"
   xmlns="http://www.w3.org/2000/svg"
   xmlns:sodipodi="http://sodipodi.sourceforge.net/DTD/sodipodi-0.dtd"
   xmlns:inkscape="http://www.inkscape.org/namespaces/inkscape"
   width="64px"
   height="64px"
   id="svg2816"
   version="1.1"
   inkscape:version="0.46"
   sodipodi:docname="edit-clear-locationbar.svg"
   sodipodi:version="0.32"
   inkscape:output_extension="org.inkscape.output.svg.inkscape">
  <defs
     id="defs2818">
    <inkscape:perspective
       sodipodi:type="inkscape:persp3d"
       inkscape:vp_x="0 : 32 : 1"
       inkscape:vp_y="0 : 1000 : 0"
       inkscape:vp_z="64 : 32 : 1"
       inkscape:persp3d-origin="32 : 21.333333 : 1"
       id="perspective2824" />
  </defs>
  <sodipodi:namedview
     id="base"
     pagecolor="#ffffff"
     bordercolor="#666666"
     borderopacity="1.0"
     inkscape:pageopacity="0"
     inkscape:pageshadow="2"
     inkscape:zoom="13.296875"
     inkscape:cx="30.571093"
     inkscape:cy="38.016452"
     inkscape:current-layer="layer1"
     showgrid="true"
     inkscape:document-units="px"
     inkscape:grid-bbox="true"
     inkscape:window-width="1255"
     inkscape:window-height="841"
     inkscape:window-x="0"
     inkscape:window-y="0"
     inkscape:window-maximized="0">
    <inkscape:grid
       type="xygrid"
       id="grid2826"
       empspacing="4"
       visible="true"
       enabled="true"
       snapvisiblegridlinesonly="true" />
  </sodipodi:namedview>
  <metadata
     id="metadata2821">
    <rdf:RDF>
      <cc:Work
         rdf:about="">
        <dc:format>image/svg+xml</dc:format>
        <dc:type
           rdf:resource="http://purl.org/dc/dcmitype/StillImage" />
        <dc:title />
      </cc:Work>
    </rdf:RDF>
  </metadata>
  <g
     id="layer1"
     inkscape:label="Layer 1"
     inkscape:groupmode="layer">
    <path
       style="opacity:0.66000001;fill:#000000;fill-opacity:1;fill-rule:nonzero;stroke:none"
       d="M 24 16 C 20.607961 15.91383 13.63409 19.938548 11.4375 21.34375 C 8.9271117 22.949695 0.621528 28.826005 0.625 32.03125 C 0.628472 35.236495 8.9548895 41.0882 11.46875 42.6875 C 13.66485 44.084642 20.602761 48.05153 24 47.96875 L 24 48 L 56 48 C 60.432004 48 64 44.432 64 40 L 64 24 C 64 19.568 60.432004 16 56 16 L 24 16 z M 40 20 C 46.627417 20 52 25.372583 52 32 C 52 38.627417 46.627417 44 40 44 C 33.372583 44 28 38.627417 28 32 C 28 25.372583 33.372583 20 40 20 z M 40 24 C 38.563607 24 37.227555 24.399531 36.0625 25.0625 L 46.9375 35.9375 C 47.600469 34.772445 48 33.436393 48 32 C 48 27.581722 44.418278 24 40 24 z M 33.1875 27.84375 C 32.445469 29.057131 32 30.473521 32 32 C 32 36.418278 35.581722 40 40 40 C 41.526479 40 42.942869 39.554531 44.15625 38.8125 L 33.1875 27.84375 z "
       id="rect3606" />
  </g>
</svg>
